X:1
T:Bawbee Allan
M:4/4
L:1/8
K:C
 E2| A3 B c2B-A| d2 cB A2 GG| A2A-B c/2- B3/2 A/2- G3/2|E-A A2 z2|\
 c2| E2E-D C2 DD| E2A-GE-D CD| E3 D C2D-E|E-A A2 z2||
